paper/svg/state_machine_manual_bottom.svg

<svg xmlns="http://www.w3.org/2000/svg" width="505" height="242" data-diagram-type="STATE" preserveAspectRatio="none" style="width:505px;height:242px;background:#fefefe" viewBox="0 0 505 242">
	<path fill="#fefefe" d="M0 0h505v242H0z" style="stroke:none;stroke-width:1"/>
	<rect width="66.471" height="50" x="130.08" y="12" fill="#add8e6" rx="12.5" ry="12.5" style="stroke:#333;stroke-width:1"/>
	<path d="M130.08 39.015h66.471" style="stroke:#333;stroke-width:1"/>
	<text x="140.08" y="31.075" font-family="Verdana" font-size="14" textLength="46.471">Closed</text>
	<rect width="56.941" height="50" x="72.84" y="139" fill="#90ee90" rx="12.5" ry="12.5" style="stroke:#333;stroke-width:1"/>
	<path d="M72.84 166.015h56.941" style="stroke:#333;stroke-width:1"/>
	<text x="82.84" y="158.075" font-family="Verdana" font-size="14" textLength="36.941">Open</text>
	<rect width="84.518" height="50" x="207.06" y="139" fill="#ffffe0" rx="12.5" ry="12.5" style="stroke:#333;stroke-width:1"/>
	<path d="M207.06 166.015h84.518" style="stroke:#333;stroke-width:1"/>
	<text x="217.06" y="158.075" font-family="Verdana" font-size="14" textLength="64.518">Readable</text>
	<circle cx="31.32" cy="37" r="10" fill="#fff" style="stroke:#000;stroke-width:1"/>
	<g class="entity" data-entity="GMN2" data-source-line="28" data-uid="ent0003">
		<path fill="#fff" d="M231.53 24.1V33l-34.48 4 34.48 4v8.9h135.562V34.1l-10-10H231.53" style="stroke:#000;stroke-width:1"/>
		<path fill="#fff" d="M357.093 24.1v10h10l-10-10" style="stroke:#000;stroke-width:1"/>
		<text x="237.53" y="42.17" font-family="Verdana" font-size="13" textLength="114.563">No file associated</text>
	</g>
	<g class="entity" data-entity="GMN5" data-source-line="31" data-uid="ent0006">
		<path d="M11,210 L11,235.7993 A0,0 0 0 0 11,235.7993 L191.6309,235.7993 A0,0 0 0 0 191.6309,235.7993 L191.6309,220 L181.6309,210 L105.32,210 L101.32,189.45 L97.32,210 L11,210 A0,0 0 0 0 11,210" fill="#FFFFFF" style="stroke:#000000;stroke-width:1;"/>
		<path d="M181.6309,210 L181.6309,220 L191.6309,220 L181.6309,210" fill="#FFFFFF" style="stroke:#000000;stroke-width:1;"/>
		<text fill="#000000" font-family="Verdana" font-size="13" lengthAdjust="spacing" textLength="159.6309" x="17" y="228.0698">File ready for operations</text>
	</g>
	<g class="entity" data-entity="GMN8" data-source-line="34" data-uid="ent0009">
		<path fill="#fff" d="M326.2 151.1v8.9l-34.22 4 34.22 4v8.9h172.24v-15.8l-10-10H326.2" style="stroke:#000;stroke-width:1"/>
		<path fill="#fff" d="M488.44 151.1v10h10l-10-10" style="stroke:#000;stroke-width:1"/>
		<text x="332.2" y="169.17" font-family="Verdana" font-size="13" textLength="151.239">Data loaded into buffer</text>
	</g>
	<g class="link" data-entity-1=".start." data-entity-2="Closed" data-source-line="11" data-uid="lnk3">
		<path fill="none" d="M41.67 37h82.02" style="stroke:#333;stroke-width:1"/>
		<path fill="#333" d="m129.69 37-9-4 4 4-4 4z" style="stroke:#333;stroke-width:1"/>
		<text x="59.7" y="31.07" font-family="Verdana" font-size="13" textLength="52.546">create()</text>
	</g>
	<g class="link" data-entity-1="Closed" data-entity-2="Open" data-source-line="22" data-uid="lnk4">
		<path fill="none" d="M129.96 49.01c-19.7 8.42-43 22.19-54.64 42.99-8.27 14.78-4.741 27.572 3.909 41.712" style="stroke:#333;stroke-width:1"/>
		<path fill="#333" d="m82.36 138.83-1.284-9.765-1.325 5.5-5.5-1.325z" style="stroke:#333;stroke-width:1"/>
		<text x="76.32" y="106.07" font-family="Verdana" font-size="13" textLength="43.767">open()</text>
	</g>
	<g class="link" data-entity-1="Open" data-entity-2="Closed" data-source-line="25" data-uid="lnk7">
		<path fill="none" d="m113.39 138.66 35.154-70.885" style="stroke:#333;stroke-width:1"/>
		<path fill="#333" d="m151.21 62.4-7.582 6.286 5.361-1.807 1.806 5.361z" style="stroke:#333;stroke-width:1"/>
		<text x="137.03" y="106.07" font-family="Verdana" font-size="13" textLength="44.554">close()</text>
	</g>
	<g class="link" data-entity-1="Open" data-entity-2="Readable" data-source-line="23" data-uid="lnk5">
		<path fill="none" d="M130.2 164h70.57" style="stroke:#333;stroke-width:1"/>
		<path fill="#333" d="m206.77 164-9-4 4 4-4 4z" style="stroke:#333;stroke-width:1"/>
		<text x="147.92" y="158.07" font-family="Verdana" font-size="13" textLength="41.006">read()</text>
	</g>
	<g class="link" data-entity-1="Readable" data-entity-2="Closed" data-source-line="24" data-uid="lnk6">
		<path fill="none" d="M232.57 138.66c-15.14-22-33.92-49.297-49.07-71.317" style="stroke:#333;stroke-width:1"/>
		<path fill="#333" d="m180.1 62.4 1.806 9.682 1.028-5.563 5.563 1.028z" style="stroke:#333;stroke-width:1"/>
		<text x="212.46" y="106.07" font-family="Verdana" font-size="13" textLength="44.554">close()</text>
	</g>
</svg>

<svg xmlns="http://www.w3.org/2000/svg" width="505" height="242" data-diagram-type="STATE" preserveAspectRatio="none" style="width:505px;height:242px;background:#fefefe" viewBox="0 0 505 242"><path fill="#fefefe" d="M0 0h505v242H0z" style="stroke:none;stroke-width:1"/><rect width="66.471" height="50" x="130.08" y="12" fill="#add8e6" rx="12.5" ry="12.5" style="stroke:#333;stroke-width:1"/><path d="M130.08 39.015h66.471" style="stroke:#333;stroke-width:1"/><text x="140.08" y="31.075" font-family="Verdana" font-size="14" textLength="46.471">Closed</text><rect width="56.941" height="50" x="72.84" y="139" fill="#90ee90" rx="12.5" ry="12.5" style="stroke:#333;stroke-width:1"/><path d="M72.84 166.015h56.941" style="stroke:#333;stroke-width:1"/><text x="82.84" y="158.075" font-family="Verdana" font-size="14" textLength="36.941">Open</text><rect width="84.518" height="50" x="207.06" y="139" fill="#ffffe0" rx="12.5" ry="12.5" style="stroke:#333;stroke-width:1"/><path d="M207.06 166.015h84.518" style="stroke:#333;stroke-width:1"/><text x="217.06" y="158.075" font-family="Verdana" font-size="14" textLength="64.518">Readable</text><circle cx="31.32" cy="37" r="10" fill="#fff" style="stroke:#000;stroke-width:1"/><g class="entity" data-entity="GMN2" data-source-line="28" data-uid="ent0003"><path fill="#fff" d="M231.53 24.1V33l-34.48 4 34.48 4v8.9h135.562V34.1l-10-10H231.53" style="stroke:#000;stroke-width:1"/><path fill="#fff" d="M357.093 24.1v10h10l-10-10" style="stroke:#000;stroke-width:1"/><text x="237.53" y="42.17" font-family="Verdana" font-size="13" textLength="114.563">No file associated</text></g><g class="entity" data-entity="GMN5" data-source-line="31" data-uid="ent0006"><path fill="#fff" d="M11 210v25.8h180.63V220l-10-10h-76.31l-4-20.55-4 20.55H11" style="stroke:#000;stroke-width:1"/><path fill="#fff" d="M181.63 210v10h10l-10-10" style="stroke:#000;stroke-width:1"/><text x="17" y="228.07" font-family="Verdana" font-size="13" textLength="159.631">File ready for operations</text></g><g class="entity" data-entity="GMN8" data-source-line="34" data-uid="ent0009"><path fill="#fff" d="M326.2 151.1v8.9l-34.22 4 34.22 4v8.9h172.24v-15.8l-10-10H326.2" style="stroke:#000;stroke-width:1"/><path fill="#fff" d="M488.44 151.1v10h10l-10-10" style="stroke:#000;stroke-width:1"/><text x="332.2" y="169.17" font-family="Verdana" font-size="13" textLength="151.239">Data loaded into buffer</text></g><g class="link" data-entity-1=".start." data-entity-2="Closed" data-source-line="11" data-uid="lnk3"><path fill="none" d="M41.67 37h82.02" style="stroke:#333;stroke-width:1"/><path fill="#333" d="m129.69 37-9-4 4 4-4 4z" style="stroke:#333;stroke-width:1"/><text x="59.7" y="31.07" font-family="Verdana" font-size="13" textLength="52.546">create()</text></g><g class="link" data-entity-1="Closed" data-entity-2="Open" data-source-line="22" data-uid="lnk4"><path fill="none" d="M129.96 49.01c-19.7 8.42-43 22.19-54.64 42.99-8.27 14.78-4.741 27.572 3.909 41.712" style="stroke:#333;stroke-width:1"/><path fill="#333" d="m82.36 138.83-1.284-9.765-1.325 5.5-5.5-1.325z" style="stroke:#333;stroke-width:1"/><text x="76.32" y="106.07" font-family="Verdana" font-size="13" textLength="43.767">open()</text></g><g class="link" data-entity-1="Open" data-entity-2="Closed" data-source-line="25" data-uid="lnk7"><path fill="none" d="m113.39 138.66 35.154-70.885" style="stroke:#333;stroke-width:1"/><path fill="#333" d="m151.21 62.4-7.582 6.286 5.361-1.807 1.806 5.361z" style="stroke:#333;stroke-width:1"/><text x="137.03" y="106.07" font-family="Verdana" font-size="13" textLength="44.554">close()</text></g><g class="link" data-entity-1="Open" data-entity-2="Readable" data-source-line="23" data-uid="lnk5"><path fill="none" d="M130.2 164h70.57" style="stroke:#333;stroke-width:1"/><path fill="#333" d="m206.77 164-9-4 4 4-4 4z" style="stroke:#333;stroke-width:1"/><text x="147.92" y="158.07" font-family="Verdana" font-size="13" textLength="41.006">read()</text></g><g class="link" data-entity-1="Readable" data-entity-2="Closed" data-source-line="24" data-uid="lnk6"><path fill="none" d="M232.57 138.66c-15.14-22-33.92-49.297-49.07-71.317" style="stroke:#333;stroke-width:1"/><path fill="#333" d="m180.1 62.4 1.806 9.682 1.028-5.563 5.563 1.028z" style="stroke:#333;stroke-width:1"/><text x="212.46" y="106.07" font-family="Verdana" font-size="13" textLength="44.554">close()</text></g></svg>
